icon/pk/storage-card-one.svg

<svg viewBox="0 0 49 48" fill="none" xmlns="http://www.w3.org/2000/svg" height="1em" width="1em">
  <path d="M33.7778 4H15.7778V12H33.7778V4Z" fill="#2F88FF" stroke="black" stroke-width="4" stroke-linejoin="round"/>
  <path d="M15.3661 4H10.7778C9.67326 4 8.77783 4.89543 8.77783 6V42C8.77783 43.1046 9.67326 44 10.7778 44H38.7778C39.8824 44 40.7778 43.1046 40.7778 42V6C40.7778 4.89543 39.8824 4 38.7778 4H34.1896" stroke="black" stroke-width="4" stroke-linecap="round" stroke-linejoin="round"/>
  <path d="M27.7775 20L19.7778 28.0012H29.7818L21.7781 36.0018" stroke="black" stroke-width="4" stroke-linecap="round" stroke-linejoin="round"/>
</svg>

<svg width="49" height="48" fill="none" xmlns="http://www.w3.org/2000/svg"><path d="M33.778 4h-18v8h18V4Z" fill="#2F88FF" stroke="#000" stroke-width="4" stroke-linejoin="round"/><path d="M15.366 4h-4.588a2 2 0 0 0-2 2v36a2 2 0 0 0 2 2h28a2 2 0 0 0 2-2V6a2 2 0 0 0-2-2H34.19" stroke="#000" stroke-width="4" stroke-linecap="round" stroke-linejoin="round"/><path d="m27.777 20-8 8.001h10.005l-8.004 8" stroke="#000" stroke-width="4" stroke-linecap="round" stroke-linejoin="round"/></svg>
